icons/grid-fill.svg

<svg xmlns="http://www.w3.org/2000/svg" viewBox="0 0 24 24">
    <g>
        <path fill="none" d="M0 0h24v24H0z"/>
        <path d="M14 10v4h-4v-4h4zm2 0h5v4h-5v-4zm-2 11h-4v-5h4v5zm2 0v-5h5v4a1 1 0 0 1-1 1h-4zM14 3v5h-4V3h4zm2 0h4a1 1 0 0 1 1 1v4h-5V3zm-8 7v4H3v-4h5zm0 11H4a1 1 0 0 1-1-1v-4h5v5zM8 3v5H3V4a1 1 0 0 1 1-1h4z"/>
    </g>
</svg>

<svg viewBox="0 0 24 24" fill="currentColor" xmlns="http://www.w3.org/2000/svg">
    <path d="M14 10V14H10V10H14ZM16 10H21V14H16V10ZM14 21H10V16H14V21ZM16 21V16H21V20C21 20.5523 20.5523 21 20 21H16ZM14 3V8H10V3H14ZM16 3H20C20.5523 3 21 3.44772 21 4V8H16V3ZM8 10V14H3V10H8ZM8 21H4C3.44772 21 3 20.5523 3 20V16H8V21ZM8 3V8H3V4C3 3.44772 3.44772 3 4 3H8Z"/>
</svg>
